resources/svg/cloud-computer.svg

<svg viewBox="0 0 24 24"><path fill="none" stroke="currentColor" stroke-width="2" d="M6 6V5c0-3 1.5-4 4-4h4c2.5 0 4 1.5 4 4v1c3 0 5 2 5 5s-2 5-5 5M14 6H6c-3 0-5 1.5-5 5s2 5 5 5m2 3h8v-7H8v7zm4 0v4v-4zm-3 4h6h-6z"/></svg>

<svg xmlns="http://www.w3.org/2000/svg" viewBox="0 0 24 24" fill="currentColor"><path fill="none" stroke="currentColor" stroke-width="2" d="M6,6 L6,5 C6,2 7.5,1 10,1 L14,1 C16.5,1 18,2.5 18,5 L18,6 C21,6 23,8 23,11 C23,14 21,16 18,16 M14,6 L6,6 C3,6 1,7.5 1,11 C1,14.5 3,16 6,16 M8,19 L16,19 L16,12 L8,12 L8,19 Z M12,19 L12,23 L12,19 Z M9,23 L15,23 L9,23 Z"/></svg>
